!!!OTL: Trost des Schlummers.
!!!OTL-incipit: RUHT IHR WEICHEN SEELEN
!!!COM: Naumann
!!!ARE: Europa, Mitteleuropa, Deutschland
!!!SCT: F1043
!!!TXL: @@DE
!!!YEM: Copyright 1995, estate of Helmut Schaffrath.
**kern	**text
*ICvox	*
*clefG2	*
*M4/4	*
*met(c)	*
*k[b-e-]	*
*B-:	*
=1	=1
!LO:TX:a:t=Sanft.	!
!LO:TX:a:t=P:only the highest voice encoded:problem	!
{4.b-/	1._Ruht
8b-/	ihr
4a	wei-
4b-/	-chen
=2	=2
(>4.cc/	See-
8a)	.
4b-/}	-len,
{8cc/	die
8dd/	das
=3	=3
4.ee-/	har-
8cc/	-te
4.dd/	Le-
8b-/	-ben
=4	=4
(4dd	drückt
4cc	.
8ccL)	.
8cc#J}	,
{8dd/	ruht
8cc/	in
=5	=5
4b-/	eu-
4a-	-ren
4g	dun-
4f	-keln
=6	=6
4f	Höhlen,
4e-}	.
{4.cc/	vom
8b-/	Er-
=7	=7
4a	-lö-
4b-/	-ſungstraum
4cc/	.
4a	er-
=8	=8
2b-/	-quickt.
2r}	.
==	==
!!!AGN: Trost - Lied
!!!ONB: ESAC (Essen Associative Code) Database: FINK
!!!AMT: simple quadruple
!!!AIN: vox
!!!EED: Helmut Schaffrath
!!!EEV: 1.0
!!Text: Tiedge
!!!RDF**kern: > = above
!!!GTL: Trauer- Begraebniss- und Trostlieder
!!!URL-scan: https://www.digitale-sammlungen.de/en/view/bsb11144622?page=659
!!!ENC: Anna Maria Matuszewska
!!!EEV: 2024/08/09
*-	*-
